packages/ffe-icons/icons/filled/lg/splitscreen.svg

<svg xmlns="http://www.w3.org/2000/svg" height="40" viewBox="0 -960 960 960" width="40"><path d="M202.565-533.667q-25.788 0-44.176-18.388t-18.388-44.176v-161.204q0-25.788 18.388-44.176t44.176-18.388h554.87q25.788 0 44.176 18.388t18.388 44.176v161.204q0 25.788-18.388 44.176t-44.176 18.388h-554.87Zm0 393.666q-25.788 0-44.176-18.388t-18.388-44.176v-161.23q0-25.788 18.388-44.176 18.388-18.387 44.176-18.387h554.87q25.788 0 44.176 18.387 18.388 18.388 18.388 44.176v161.23q0 25.788-18.388 44.176t-44.176 18.388h-554.87Z"/></svg>

<svg xmlns="http://www.w3.org/2000/svg" viewBox="0 -960 960 960" width="32" height="32"><path d="M202.57-533.67q-25.79 0-44.18-18.38Q140-570.44 140-596.23v-161.2q0-25.79 18.39-44.18T202.57-820h554.86q25.79 0 44.18 18.39T820-757.43v161.2q0 25.79-18.39 44.18-18.39 18.38-44.18 18.38H202.57Zm0 393.67q-25.79 0-44.18-18.39T140-202.57v-161.22q0-25.79 18.39-44.18t44.18-18.39h554.86q25.79 0 44.18 18.39T820-363.79v161.22q0 25.79-18.39 44.18T757.43-140H202.57Z"/></svg>
